icons/htaccess.svg

<svg width="16" height="16" viewBox="0 0 16 16" fill="none" xmlns="http://www.w3.org/2000/svg">
<path fill-rule="evenodd" clip-rule="evenodd" d="M11.7143 6.52941H13V4.26471V3H12L7.20485 7.44257C6.70038 7.16067 6.11895 7 5.5 7C3.567 7 2 8.567 2 10.5C2 12.433 3.567 14 5.5 14C7.433 14 9 12.433 9 10.5C9 10.1266 8.94151 9.76678 8.8332 9.42932L10.4286 7.82353H11.7143V6.52941ZM5.89794 11.0183C5.76295 10.9078 5.61542 10.787 5.47487 10.6464C5.33433 10.5059 5.21353 10.3584 5.10301 10.2234C4.7529 9.79578 4.5059 9.4941 4.06066 9.93934C3.47487 10.5251 3.47487 11.4749 4.06066 12.0607C4.64645 12.6464 5.59619 12.6464 6.18198 12.0607C6.62722 11.6154 6.32554 11.3684 5.89794 11.0183Z" fill="#D93E5C"/>
</svg>

<svg xmlns="http://www.w3.org/2000/svg" width="16" height="16" fill="none"><path fill="#D93E5C" fill-rule="evenodd" d="M11.714 6.53H13V3h-1L7.205 7.443A3.5 3.5 0 1 0 8.833 9.43l1.596-1.606h1.285V6.529Zm-5.816 4.488a5.583 5.583 0 0 1-.423-.372 5.588 5.588 0 0 1-.372-.423c-.35-.427-.597-.729-1.042-.284a1.5 1.5 0 0 0 2.121 2.122c.445-.446.144-.693-.284-1.043Z" clip-rule="evenodd"/></svg>
